!!!OTL: Der Meierin Sohn Bie vrie ischt auf de Moararin junkh!
!!!ARE: Europa, Suedosteuropa, Jugoslavija, Gottschee, Buehel
!!!YOR: 4, S. 234
!!    1906 aufgezeichnet
!!!SCT: Q0083
!!!YEM: Copyright 1995, estate of Helmut Schaffrath.
**kern
*ICvox
*Ivox
*M3/4
*k[b-]
*F:
{8g
8a
=1
4b-
4a
8b-
8a
=2
4g
4f
4g
=3
4a
4a
4g
=4
2f}
{8f
8g
=5
4a
4g
8a
8g
=6
4f
4e
4f
=7
2g
4g
=8
2f}
==
!!!AGN: Ballade, Mord, Vergeltung, Heirat
!!!ONB: ESAC (Essen Associative Code) Database: BALLADE
!!!AMT: simple triple
!!!AIN: vox
!!!EED: Helmut Schaffrath
!!!EEV: 1.0
*-
